X:1
T:Berlin (Harmonia), LM
T:Berlin (Harmonia), LM
T:Harmonia Sacra, by Joseph Funk
T:Public Domain Courtesy of the Cyber Hymnal™
C:Harmonia Sacra, by Joseph Funk
Z:Public Domain
Z:Courtesy of the Cyber Hymnal™
%%score ( 1 2 ) ( 3 4 )
L:1/8
Q:1/4=113
M:2/2
K:Bb
V:1 treble 
V:2 treble 
V:3 bass 
V:4 bass 
V:1
 F2 | [FB]2 [FB]2 | [Ac]2 [Ac] ([Bd]/[ce]/) | [Bd]2 [Ac]2 | !fermata!B2 [Bd]2 | [Ac]2 [Ff]2 | %6
 [Ge]2 [GB]2 | [FA]2 [=EG]2 | F2 [FB]2 | [Fd]2 [Ff]2 | [Fe]2 [Fd]2 | [Gd]2 [Fc]2 | %12
 !fermata![Fd]2 [Fd]2 | ([Bd][Gc]) ([Fc][GB]) | (BA) ([GB][Fc]) | [Fd]2 [Fc]2 | [FB]2 |] %17
V:2
 F2 | x4 | x4 | x4 | B2 x2 | x4 | x4 | x4 | F2 x2 | x4 | x4 | x4 | x4 | x4 | BA x2 | x4 | x2 |] %17
V:3
 [F,B,]2 | [B,,D]2 [B,,D]2 | [F,F]2 (FD) | B,2 [F,C]2 | !fermata![B,,D]2 [B,,B,]2 | [F,C]2 [B,D]2 | %6
 [G,B,]2 [G,D]2 | C2 [C,B,]2 | [F,C]2 [B,,D]2 | [B,,B,]2 (CB,) | [A,C]2 B,2 | [G,B,]2 [F,C]2 | %12
 !fermata![B,D]2 [B,F]2 | ([B,F][CG]) ([F,F][G,D]) | ([E,B,][F,C]) ([G,D][F,C]) | B,2 [F,C]2 | %16
 [B,,D]2 |] %17
V:4
 x2 | x4 | x2 F,2 | B,2 x2 | x4 | x4 | x4 | C2 x2 | x4 | x2 F,2 | x2 (G,A,) | x4 | x4 | x4 | x4 | %15
 B,2 x2 | x2 |] %17

